!!!COM: Haydn, Franz Joseph
!!!OTL: String Quartet in F Minor
!!!OPS: Opus 20
!!!ONM: No. 5
!!!OMD: Menuetto
!!!OMV: 2
!!!SCT: H III:35
!!!SCA: Thematisch-bibliographisches Werkevererzeichnis (A. van Hoboken)
!!!YOR: Trautwein Edition
!!!ENC: Frances Bennion
!!!CDT: 1732/3/31/-1809/5/31/
!!!CNT: Oesterreich
!!!YEC: Copyright (c) 1994, 2000 Center for Computer Assisted Research in the Humanities
!!!YEM: Rights to all derivative editions reserved.
!!!YEM: Refer to licensing agreement for further details.
!!!YEN: United States of America
**kern	**kern	**kern	**kern
*k[b-e-a-d-]	*k[b-e-a-d-]	*k[b-e-a-d-]	*k[b-e-a-d-]
*f:	*f:	*f:	*f:
*clefF4	*clefC3	*clefG	*clefG
*M3/4	*M3/4	*M3/4	*M3/4
4F	4c	4A-	[2.cc
4F	4c	4A-	.
4F	4c	4A-	.
=2	=2	=2	=2
2.G	2.e	2.B-	4cc]
.	.	.	4b-
.	.	.	4g
=3	=3	=3	=3
4A-	4f	4c	4f
4F	4a-	4a-	4ff
4D-	4B	4a-	4ff
=4	=4	=4	=4
2.C	2.c	2a-	2ff
.	.	4g	4ee
=5	=5	=5	=5
2.r	2.e	2.g	2cc
.	.	.	8dd-
.	.	.	8cc
=6	=6	=6	=6
2.r	2.f	2.a-	4cc
.	.	.	4cc
.	.	.	4cc
=7	=7	=7	=7
2.r	2.e-	2.g	2cc
.	.	.	8dd-
.	.	.	8cc
=8	=8	=8	=8
2.r	2d-	2f	4ff
.	.	.	4b-
.	4c	4e-	[4a-
=9	=9	=9	=9
2.r	2B-	2d-	4a-]
.	.	.	4g
.	4A-	4c	4f
=10	=10	=10	=10
4EE-	2G	2B-	2e-
4EE-	.	.	.
4EE-	4A-	4c-	4d
=11	=11	=11	=11
[2.EE-	4G	4B-	4e-
.	4A-	4c-	4d
.	4G	4B-	4e-
=12	=12	=12	=12
4EE-]	2.B-	2.G	2.d-
4FF-	.	.	.
4EE-	.	.	.
=13	=13	=13	=13
4AA-	4A-	4A-	4c
4r	4r	4r	4ee-
4C	4A-	4e-	4ee-
=14	=14	=14	=14
4D-	4A-	4f	4r
4r	4r	4r	4dd-
4E-	8G	4d-	8b-
.	8B-	.	8g
=15	=15	=15	=15
4AA-	4A-	4c	4a-
4r	4r	4r	4ee-
4C	4A-	4e-	4ee-
=16	=16	=16	=16
4D-	4A-	4f	4r
4r	4r	4r	4dd-
4E-	8G	4d-	8b-
.	8B-	.	8g
=17	=17	=17	=17
4A-	4A-	4c	4a-
2r	2r	2r	4cc
.	.	.	4cc
=18	=18	=18	=18
4G	4e	4B-	4r
2r	2r	2r	4cc
.	.	.	4cc
=19	=19	=19	=19
4F	4e-	4A	[2.cc
4F	4e-	4A	.
4F	4e-	4A	.
=20	=20	=20	=20
2B-	4e-	4B-	4cc]
.	4f	2r	4dd-
4r	4d-	.	4b-
=21	=21	=21	=21
2.r	2.e-	2.g-	4r
.	.	.	4a
.	.	.	8cc
.	.	.	8b-
=22	=22	=22	=22
2.r	4d-	4f	2b-
.	2r	2r	.
.	.	.	8ff
.	.	.	8dd-
=23	=23	=23	=23
2.r	4r	4r	2cc
.	4f	4a-	.
.	4f	4a-	8b
.	.	.	8cc
=24	=24	=24	=24
4CC	4e	4g	[2.cc
4EE	4E	4e	.
4GG	4G	4g	.
=25	=25	=25	=25
4AA-	4A-	4a-	2cc]
4FF	4F	4f	.
4DD-	4D-	4B	4ff
=26	=26	=26	=26
4CC	4C	4c	4ee
4EE	4E	4e	4cc
4GG	4G	4g	4cc
=27	=27	=27	=27
4AA-	4A-	4a-	2cc
4FF	4F	4f	.
4DD-	4D-	4B	4ff
=28	=28	=28	=28
4CC	4C	4c	4ee
2r	2r	2r	4cc
.	.	.	4cc
=29	=29	=29	=29
4G	4e	4B-	4r
2r	2r	2r	4cc
.	.	.	4cc
=30	=30	=30	=30
4F	4f	4A-	[2.cc
4F	4c	4A-	.
4F	4c	4A-	.
=31	=31	=31	=31
2.G	2.e	2.B-	4cc]
.	.	.	4b-
.	.	.	4g
=32	=32	=32	=32
4A-	4f	4c	4f
4F	4a-	4a-	4ff
4D-	4B	4a-	4ff
=33	=33	=33	=33
2.C	2.c	2a-	2ff
.	.	4g	4ee
=34	=34	=34	=34
4A-	4A-	4f	4f
4F	4F	4ff	4aa-
4D-	4D-	4ff	4aa-
=35	=35	=35	=35
2.C	2.C	2ff	2aa-
.	.	4ee	4gg
=36	=36	=36	=36
2.r	2.e	2.g	2cc
.	.	.	8dd-
.	.	.	8cc
=37	=37	=37	=37
2.r	2.f	2.a-	4cc
.	.	.	4cc
.	.	.	4cc
=38	=38	=38	=38
2.G	2.B-	2.e	2cc
.	.	.	8dd-
.	.	.	8cc
=39	=39	=39	=39
[2.A-	2.c	2.f	4cc
.	.	.	4cc
.	.	.	4cc
=40	=40	=40	=40
2.A-_	2.e-	2.g-	2cc
.	.	.	8bb-
.	.	.	8aa-
=41	=41	=41	=41
2.A-]	2.d-	2.f	4aa-
.	.	.	4ff
.	.	.	4dd-
=42	=42	=42	=42
2.A	2e-	2g-	2cc
.	4c	[4f	8ee-
.	.	.	8dd-
=43	=43	=43	=43
2B-	4B-	4f]	2dd-
.	4f	4a-	.
4B	4d	4g	8ff
.	.	.	8ee
=44	=44	=44	=44
[2.c	4c	2g	4ee
.	4e	.	4cc
.	4f	4a-	4b
=45	=45	=45	=45
2.c]	4e	4g	4cc
.	4f	4a-	4b
.	4e	4g	4cc
=46	=46	=46	=46
4c	[2.g	4e	2.b-
4d-	.	4f	.
4c	.	4e	.
=47	=47	=47	=47
4B-	4g]	4dd-	2.ee
4A-	4a-	4cc	.
4G	4b-	4b-	.
=48	=48	=48	=48
4F	4cc	4a-	4ff
4r	4r	4r	4aa-
4AA-	[4f	4cc	4aa-
=49	=49	=49	=49
4BB-	4f]	4dd-	4r
4r	4r	4r	4gg
4C	8e	4b-	8bb-
.	8g	.	8ee
=50	=50	=50	=50
4F	4f	4a-	4ff
4r	4r	4r	4aa-
4AA-	[4f	4cc	4aa-
=51	=51	=51	=51
4BB-	4f]	4dd-	4r
4r	4r	4r	4gg
4C	8e	4b-	8bb-
.	8g	.	8ee
=52	=52	=52	=52
4FF	4f	4a-	4ff
2r	2r	4a-	4cc
.	.	4a-	4cc
=53	=53	=53	=53
4C	4G	4r	4r
2r	2r	4B-	4e
.	.	4B-	4e
=54	=54	=54	=54
4FF	4F	4A-	4f
2r	2r	2r	2r
=55	=55	=55	=55
*F:	*F:	*F:	*F:
4FF	4F	2.A	2.f
4FF	2r	.	.
4FF	.	.	.
=56	=56	=56	=56
4FF	2.r	2.B-	2e
4FF	.	.	.
4FF	.	.	4d
=57	=57	=57	=57
4FF	2.r	2A	2c
4FF	.	.	.
4FF	.	4B-	4d
=58	=58	=58	=58
[2.FF	4C	2A	2c
.	4D	.	.
.	4E	4G	4B-
=59	=59	=59	=59
4FF]	4F	4A	4A
2r	2r	2r	4r
.	.	.	8a
.	.	.	8b-
=60	=60	=60	=60
2.r	2.r	2.r	8b
.	.	.	8cc
.	.	.	8dd
.	.	.	8cc
.	.	.	8b
.	.	.	8cc
=61	=61	=61	=61
4E	4c	4c	4g
4E	4c	4c	4g
4r	4r	4r	8a
.	.	.	8b-
=62	=62	=62	=62
2.r	2.r	2.r	8b
.	.	.	8cc
.	.	.	8dd
.	.	.	8cc
.	.	.	8b
.	.	.	8cc
=63	=63	=63	=63
4D	4F	4B	4f
4D	4F	4B	4f
4r	4r	4r	8dd
.	.	.	8cc
=64	=64	=64	=64
4C	4G	4c	4e
4C	4G	4c	4e
4r	4r	4r	8ee
.	.	.	8ff
=65	=65	=65	=65
2.r	2.r	2.r	8ff#
.	.	.	8gg
.	.	.	8aa
.	.	.	8gg
.	.	.	8ff#
.	.	.	8gg
=66	=66	=66	=66
4r	4r	4r	4ddd
4B	4g	4dd	4ff
4c	4g	4cc	4ee
=67	=67	=67	=67
4F	4a	4a	4dd
2r	2r	2r	4r
.	.	.	8cc#
.	.	.	8dd
=68	=68	=68	=68
2.r	2.r	2.r	8cc#
.	.	.	8dd
.	.	.	8ee
.	.	.	8dd
.	.	.	8ff
.	.	.	8dd
=69	=69	=69	=69
2r	2r	2r	4a
.	.	.	4r
4G	4d	4B	4f
=70	=70	=70	=70
4C	4e	4c	4e
2r	2r	2r	2r
=71	=71	=71	=71
4CC	2.E	2.c	2.cc
4C	.	.	.
4C	.	.	.
=72	=72	=72	=72
4CC	2F	8B	2dd
.	.	8c	.
4C	.	8d	.
.	.	8c	.
4C	4G	8B-	4ee
.	.	8c	.
=73	=73	=73	=73
4CC	2.F	8A	4ff
.	.	8c	.
4C	.	8f	4cc
.	.	8c	.
4C	.	8A	8a
.	.	8c	8f
=74	=74	=74	=74
4CC	2E	8G	4c
.	.	8c	.
4C	.	8e	4cc
.	.	8c	.
4C	4G	8B-	4ee
.	.	8c	.
=75	=75	=75	=75
4CC	2.F	8A	4ff
.	.	8c	.
4C	.	8f	4cc
.	.	8c	.
4C	.	8A	8a
.	.	8c	8f
=76	=76	=76	=76
4CC	2E	8G	4c
.	.	8c	.
4C	.	8e	4cc
.	.	8c	.
4C	4G	8B-	4ee
.	.	8c	.
=77	=77	=77	=77
4CC	2.F	8A	4ff
.	.	8c	.
4C	.	8f	4cc
.	.	8c	.
4C	.	8A	8a
.	.	8c	8f
=78	=78	=78	=78
4C	4E	4G	4c
2r	2r	2r	2r
=79	=79	=79	=79
4FF	2.r	2.A	2.f
4FF	.	.	.
4FF	.	.	.
=80	=80	=80	=80
4FF	2.r	2.B-	2e
4FF	.	.	.
4FF	.	.	4d
=81	=81	=81	=81
4FF	2.r	2A	2c
4FF	.	.	.
4FF	.	4B-	4d
=82	=82	=82	=82
[2.FF	4C	2A	2c
.	4D	.	.
.	4E	4G	4B-
=83	=83	=83	=83
4FF]	4F	4A	4A
2r	2r	2r	4r
.	.	.	8dd
.	.	.	8ee-
=84	=84	=84	=84
2.r	2.r	2.r	8ee
.	.	.	8ff
.	.	.	8gg
.	.	.	8ff
.	.	.	8ee
.	.	.	8ff
=85	=85	=85	=85
4B-	4B-	4f	4dd
4B-	4B-	4f	4dd
4r	4r	4r	8dd
.	.	.	8ee-
=86	=86	=86	=86
2.r	2.r	2.r	8ee
.	.	.	8ff
.	.	.	8gg
.	.	.	8ff
.	.	.	8ee
.	.	.	8ff
=87	=87	=87	=87
4A	4A	4f	4cc
4A	4A	4f	4cc
4r	4r	4r	8gg
.	.	.	8ff
=88	=88	=88	=88
4G	4G	4e	4b-
4G	4G	4e	4b-
4r	4r	4r	8gg
.	.	.	8ff
=89	=89	=89	=89
4F	4c	4f	4a
4F	4c	4f	4a
4r	4r	4r	8aa
.	.	.	8bb-
=90	=90	=90	=90
2.r	2.r	2.r	8bb
.	.	.	8ccc
.	.	.	8ddd
.	.	.	8ccc
.	.	.	8bb
.	.	.	8ccc
=91	=91	=91	=91
2E	2g	2.cc	4bb-
.	.	.	8.bb-
.	.	.	16gg
4F	4f	.	8.aa
.	.	.	16ff
=92	=92	=92	=92
4BB-	4B-	4dd	4gg
2r	2r	4r	4r
.	.	8a	8ff#
.	.	8b-	8gg
=93	=93	=93	=93
2r	2r	8a	8ff#
.	.	8b-	8gg
.	.	8dd	8bb-
.	.	8b-	8gg
4C	8B-	8g	8ee
.	8G	8b-	8gg
=94	=94	=94	=94
4F	4A	4a	4ff
2r	2r	2r	2r
=95	=95	=95	=95
2r	2.r	2r	2.r
8A	.	8cc#	.
8B-	.	8dd	.
=96	=96	=96	=96
8A	2.r	8cc#	2.ff
8B-	.	8dd	.
8d	.	8ff	.
8B-	.	8dd	.
8d	.	8ff	.
8B-	.	8dd	.
=97	=97	=97	=97
8F#	2.d	8a	2.bb-
8G	.	8b-	.
8A	.	8cc	.
8G	.	8b-	.
8B-	.	8dd	.
8G	.	8b-	.
=98	=98	=98	=98
2E	2.c	2g	8bb-
.	.	.	8gg
.	.	.	8ee
.	.	.	8cc
4F	.	4f	8b-
.	.	.	8a
=99	=99	=99	=99
4BB-	4B-	2r	8cc#
.	.	.	8dd
4r	4r	.	8b-
.	.	.	8g
4C	4G	4B-	8e
.	.	.	8c
=100	=100	=100	=100
4FF	4A	4A	4f
2r	2r	2r	2r
==	==	==	==
*-	*-	*-	*-
!!!RWG1: This file contains only pitch and duration data.
!!!RWG2: Transposing instruments are not transposed.
!!!RWG3: Spines may have incompatible meters.
!!!RWG4: Durations of rests and tied notes may be interpreted.
!!!RWG: Key is interpreted using the Humdrum key tool.
!!!GTL: 6 Divertimentos ("Sun")
!!!AFT: stage1
!!!END: 1997/04/15
!!!KEY: 3427885536
!!!EMD: Converted from MuseData to Humdrum Dec 16, 2000, by Andreas Kornstaedt using muse2kern.
!!!EMD: Manual editing by Craig Sapp, Nov 2001
